X: 7
T: The Broken Pledge
R: reel
M: 4/4
L: 1/8
K: Amix
|:aged cAA2 | gedc BGG2 | EAAB cBcd | eaag e2de |
gede g3a | bgab ged2 |efed cBce | gedB BAA2 :|
|: a2ea a2a2 | cBce aged | gedB dega | bgab age2 |
a2ea a2a2 | cBce aged | c3d e3f | gedB BAA2 :|


Tune 1423	Setting 25925

